!!!COM: Chopin, Frederic
!!!CDT: 1810///-1849///
!!!OTL: Prelude in B-flat Major, Op. 28, No. 21
!!!OPS: Op. 28
!!!ONM: No. 21
!!!OMD: Cantabile
!!!ODT: 1836///-1839///
!!!PDT: 1839///
!!!ENC: Craig Stuart Sapp
!!!AIN: piano
!!!EEV: 2008/01/15/
!!!YEC: Copyright 2008 by Craig Stuart Sapp
**kern	**kern	**dynam
*staff2	*staff1	*staff1
*Ipiano	*Ipiano	*Ipiano
*clefF4	*clefG2	*clefG2
*k[b-e-]	*k[b-e-]	*k[b-e-]
*B-:	*B-:	*B-:
*M3/4	*M3/4	*M3/4
*MM110	*MM110	*MM110
=1-	=1-	=1-
8BBB-/L	(2.ff\	<
8F/	.	.
8En/ 8G/	.	.
8E-/ 8A/	.	.
8D/ 8B-/	.	.
8C/ 8c/J	.	.
=2	=2	=2
&(8BB-\L&)	2dd\	<
8F\ 8d\	.	.
8En\ 8G\	.	.
8E-\ 8A\	.	.
.	ffq/	.
8D\ 8B-\	4ee-\	.
8BB-\J	.	.
=3	=3	=3
&(8EE-\L&)	2.dd\	<
8G\	.	.
8F#\ 8A\	.	.
8Fn\ 8Bn\	.	.
8E-\ 8c\	.	.
8D\ 8d\J	.	.
=4	=4	=4
&(8C\L&)	2.g/)	<
8G\ (8e-\	.	.
8F#\ 8A\	.	.
8Fn\ 8Bn\	.	.
8E-\ 8c\	.	.
8C\ 8e-\J	.	.
=5	=5	=5
8FF\L)	4a/	.
8B-\ (8g-\	.	.
8A\ 8f\	4ee-\	>
8A-\ 8c\	.	.
8Gn\ 8e-\	4ee-\	.
8G-\ 8B-\J	.	.
=6	=6	=6
8FF\L)	4ee-\	>
8G-\ (8e-\	.	.
.	ee-q/LL	.
.	ffq/	.
.	ee-q/JJ	.
8F\ 8d\	4ddn\	.
.	.	.
8En\ 8Gn\	.	.
8E-\ 8A\	4ee-\	.
8F\J	.	.
=7	=7	=7
8BB-\L)	[2gg\	.
(8F\	.	.
8En\ 8G\	.	.
8E-\ 8A\	.	.
8D\ 8B-\	8.gg\L]	.
8C\ 8c\J	.	.
.	16ff\Jk	.
=8	=8	=8
8BB-\L)	&(2dd\&)	.
8F\ (8d\	.	.
8En\ 8G\	.	.
8E-\ 8A\	.	.
8D\ 8B-\	4r	.
8C\ 8c\J	.	.
=9	=9	=9
8GG\L)	2.bb-\	<
(8d\	.	.
8c#\ 8en\	.	.
8cn\ 8f#\	.	.
8B-\ 8g\	.	.
8A\ 8a\J	.	.
=10	=10	=10
8BB-\L)	[2b-\	<
(8B-\	.	.
8A\ 8c\	.	.
8A-\ 8d\	.	.
8G\ 8e-\	&(8.b-\L]&)	.
8F\ 8f\J	.	.
.	16b-\Jk	.
=11	=11	=11
8EE-\L)	2.gg\	<
(8G\	.	.
8F#\ 8An\	.	.
8Fn\ 8Bn\	.	.
8E-\ 8c\	.	.
8D\ 8d\J	.	.
=12	=12	=12
8C\L)	4g/	.
8G\ (8e-\	.	.
.	gq/L	.
.	aq/	.
.	gq/	.
.	f#q/	.
.	gq/J	.
8F#\ 8A\	4ee-\	<
8Fn\ 8Bn\	.	.
8E-\ 8c\	4cc\	.
8C\ 8e-\J	.	.
=13	=13	=13
8FF/)	&(8a/&)	.
*clefG2	*	*
8f/ (8dd/L	8ff\ 8ddd\L	>
8en/ 8g/	8een\ 8gg\	.
8e-/ 8a/	8ee-\ 8aa\	.
8d/ 8b-/	8dd\ 8bb-\	.
8d-/ 8f/J	8dd-\ 8ff\J	.
=14	=14	=14
8c/ 8a-/L	8cc\ 8aa-\L	.
8B-/ 8g-/	8b-\ 8gg-\	.
8An/ 8c/	8an\ 8cc\	.
8A-/ 8dn/	8a-\ 8ddn\	.
8Gn/ 8e-/	8gn\ 8ee-\	.
8G-/ 8B-/J	8g-\ &(8b-\J&)	.
*clefF4	*	*
=15	=15	=15
8BB-\L)	8r	.
8F\ (8d\	8f/ 8dd/L	>
8En\ 8G\	8en/ 8g/	.
8E-\ 8A\	8e-/ 8a/	.
8D\ 8B-\	8d/ 8b-/	.
8F\J	8f/J	.
=16	=16	=16
8BB-\L)	&(8B-/&)	>
8F\ (8d\	8r	.
8En\ 8G\	4r	.
8E-\ 8A\	.	.
8D\ 8B-\	4r	.
8BB-\J	.	.
=17	=17	=17
8GGG-/L)	2.b-\ 2.dd-\ 2.bb-\	f
8D-/ 8B-/	.	.
8G-/ 8d-/	.	.
8B-/ 8e-/	.	.
8G-/ 8d-/	.	.
8D-/ 8B-/J	.	.
=18	=18	=18
8G-\ 8d-\L	2g-\ 2b-\ 2gg-\	.
8B-\ 8e-\	.	.
8G-\ 8d-\	.	.
8D-\ 8B-\	.	.
8G-\ 8d-\	4cc-\ 4ee-\ 4ccc-\	.
8B-\ 8e-\J	.	.
=19	=19	=19
8G-\ 8d-\L	2.b-\ 2.dd-\ 2.bb-\	.
8D-\ 8B-\	.	.
8G-\ 8d-\	.	.
8B-\ 8e-\	.	.
8G-\ 8d-\	.	.
8D-\ 8B-\J	.	.
=20	=20	=20
8G-\ 8d-\L	2.g-\ 2.b-\ &(2.gg-\&)	.
8B-\ 8e-\	.	.
8G-\ 8d-\	.	.
8D-\ 8B-\	.	.
8G-\ 8d-\	.	.
8B-\ 8e-\J	.	.
=21	=21	=21
8G-\ 8d-\L	2dd-\ 2bb-\ (2ddd-\	.
8D-\ 8B-\	.	.
8G-\ 8d-\	.	.
8B-\ 8e-\	.	.
8G-\ 8d-\	4b-\ 4gg-\ 4bb-\	.
8D-\ 8B-\J	.	.
=22	=22	=22
8G-\ 8d-\L	2gg-\ 2bb-\ 2ggg-\	.
8B-\ 8e-\	.	.
8G-\ 8d-\	.	.
8D-\ 8B-\	.	.
8G-\ 8d-\	4dd-\ 4bb-\ 4ddd-\	.
8B-\ 8e-\J	.	.
=23	=23	=23
.	cc-q/ 4aa-/ 4ccc-/	.
8G-\ 8d-\L	4cc-\ 4aa-\ 4ccc-\	.
8D-\ 8B-\	.	.
8G-\ 8d-\	4b-\ 4gg-\ 4bb-\)	.
8B-\ 8e-\	.	.
8G-\ 8d-\	4r	.
8D-\ 8B-\J	.	.
=24	=24	=24
8G-\ 8d-\L	2.r	.
8B-\ 8e-\	.	.
8G-\ 8d-\	.	.
8D-\ 8B-\	.	.
8G-\ 8d-\	.	.
8B-\ 8e-\J	.	.
=25	=25	=25
8G-\ 8f-\L	2.b-\ 2.dd-\ (2.bb-\	pp
8B-\ 8d-\	.	.
8G-\ 8g-\	.	.
8B-\ 8e-\	.	.
8G-\ 8f-\	.	.
8B-\ 8d-\J	.	.
=26	=26	=26
8G-\L	2g-\ 2b-\ 2gg-\	.
8B-\ 8e-\	.	.
8G-\ 8f-\	.	.
8B-\ 8d-\	.	.
8G-\ 8g-\	4cc-\ 4ee-\ 4ccc-\	.
8B-\ 8e-\J	.	.
=27	=27	=27
8G-\ 8f-\L	2.b-\ 2.dd-\ 2.bb-\	.
8B-\ 8d-\	.	.
8G-\ 8g-\	.	.
8B-\ 8e-\	.	.
8G-\ 8f-\	.	.
8B-\ 8d-\J	.	.
=28	=28	=28
8G-\L	2.g-\ 2.b-\ 2.gg-\	.
8B-\ 8e-\	.	.
8G-\ 8f-\	.	.
8B-\ 8d-\	.	.
8G-\ 8g-\	.	.
8B-\ 8e-\J	.	.
=29	=29	=29
8G-\ 8f-\L	2dd-\ 2bb-\ 2ddd-\	.
8B-\ 8d-\	.	.
8G-\ 8g-\	.	.
8B-\ 8e-\	.	.
8G-\ 8f-\	4b-\ 4gg-\ 4bb-\	.
8B-\ 8d-\J	.	.
=30	=30	=30
8G-\ 8g-\L	2gg-\ 2bb-\ 2ggg-\	.
8B-\ 8e-\	.	.
8G-\ 8f-\	.	.
8B-\ 8d-\	.	.
8G-\ 8g-\	4dd-\ 4bb-\ 4ddd-\	.
8B-\ 8e-\J	.	.
=31	=31	=31
.	dd-q/ bb-q/ ddd-q/	.
8G-\ 8f-\L	4cc-\ 4aa-\ 4ccc-\	.
8B-\ 8d-\	.	.
8G-\ 8g-\	4b-\ 4gg-\ 4bb-\)	.
8B-\ 8e-\	.	.
8G-\ 8f-\	4r	.
8B-\ 8d-\J	.	.
=32	=32	=32
8G-\ 8g-\L	2.r	<
8B-\ 8e-\	.	.
8G-\ 8f-\	.	.
8B-\ 8d-\	.	.
8G-\ 8en\	.	.
8B-\ 8c\J	.	.
=33	=33	=33
*	*^	*
8FFF/L	(2.ff^/	8r	<
8F/	.	8f\L	.
8En/ 8Gn/	.	8en\ 8gn\	.
8E-/ 8A/	.	8e-\ 8a\	.
8D/ 8B-/	.	8d\ 8b-\	.
8C/J	.	8c\ 8cc\J	.
=34	=34	=34	=34
8FF\L	&(2.dd/&))	8r	.
8F\	.	(8f\L	.
8En\ 8G\	.	8en\ 8g\	.
8E-\ 8A\	.	8e-\ 8a\	.
8D\ 8B-\	.	8d\ 8b-\	.
8F\J	.	8dd\J	.
=35	=35	=35	=35
&(8FF\L&)	(2.gg^/)	8r	.
8G\	.	8g\L	.
8F#\ 8A\	.	8f#\ 8a\	.
8Fn\ 8Bn\	.	8fn\ 8bn\	.
8E-\ 8c\	.	8e-\ 8cc\	.
8D\J	.	8d\ 8dd\J	.
=36	=36	=36	=36
&(8FF\L&)	2.ee-/)	8r	.
8G\	.	(8g\L	.
8F#\ 8A\	.	8f#\ 8a\	.
8Fn\ 8Bn\	.	8fn\ 8bn\	.
8E-\ 8c\	.	8e-\ 8cc\	.
8G\J	.	8ee-\J	.
=37	=37	=37	=37
&(8FF\L&)	2.aa^/)	8r	.
8A\	.	(8a\L	.
8G#\ 8Bn\	.	8g#\ 8bn\	.
8Gn\ 8c#\	.	8gn\ 8cc#\	.
8F\ 8d\	.	8f\ 8dd\	.
8A\J	.	8ff\J	.
=38	=38	=38	=38
&(8FF\L&)	2.bb-^/)	8r	.
(8B-\	.	(8b-\L	.
8A\ 8c\	.	8a\ 8cc\	.
8A-\ 8d\	.	8a-\ 8dd\	.
8G\ 8e-\	.	8g\ 8ee-\	.
8G-\J	.	8g-\ 8gg-\J)	ff
*	*v	*v	*
=39	=39	=39
8FFF'/ 8FF'/)	8r	.
*clefG2	*	*
(8f/L	8ff\L	.
8g-^/ 8b-^/ 8ee-^/	8gg-^\ 8bb-^\ 8eee-^\	.
8f/	8ff\	.
8g-^/ 8b-^/ 8ee-^/	8gg-^\ 8bb-^\ 8eee-^\	.
8f/J	8ff\J	.
=40	=40	=40
8g-/ 8b-/ 8ee-/L	8gg-\ 8bb-\ 8eee-\L	.
8f/	8ff\	.
8g-/ 8b-/ 8ee-/	8gg-\ 8bb-\ 8eee-\	.
8f/	8ff\	.
8g-/ 8b-/ 8ee-/	8gg-\ 8bb-\ 8eee-\	.
8f/J)	&(8ff\J&)	.
=41	=41	=41
8g-/ 8a/ 8ee-/L	8gg-\ (8eee-\L	.
8f/ 8dd/	8ff\ 8ddd\	.
8en/ 8gn/	8een\ 8ggn\	.
8e-/ 8a/	8ee-\ 8aa\	.
8d/ 8b-/	8dd\ 8bb-\	>
8d-/ 8f/J	8dd-\ 8ff\J	.
=42	=42	=42
8c/ 8a-/L	8cc\ 8aa-\L	.
8B-/ 8g-/J	8b-\ 8gg-\	.
*clefF4	*	*
8An\ 8c\L	8an\ 8cc\	.
8A-\ 8dn\	8a-\ 8ddn\	.
8Gn\ 8e-\	8gn\ 8ee-\	.
8G-\ 8B-\J	8g-\ 8b-\J	.
=43	=43	=43
8F\ 8d-\L	8f/ 8dd-/L	.
8En\ 8c\	8en/ 8cc/	.
8E-\ 8Gn\	8e-/ 8gn/	.
8Dn\ 8G#\	8dn/ 8g#/	.
8C#\ 8An\	8c#/ 8an/	.
8Cn\ 8E-\J	8cn/ 8e-/J	.
=44	=44	=44
*	*^	*
8BB-/ 8G-/L	8B-/ 8g-/L	4r	.
8AA/ 8F/	8A/ 8f/	.	.
8AA-/ 8C/	8A-/ 8c/	4r	.
8GGn/ 8D/	8Gn/ 8d/J	.	.
8GG-/ 8E-/	4e-^/	8G-\L	.
8FF/J	.	8F\ 8An\J	.
*	*v	*v	*
=45	=45	=45
&(8BBB-\L&)	8F/ 8B-/ 8d/)	.
(8En\	8r	.
8F\	4r	.
8B-\	.	.
8A\	4r	.
8Gn\J	.	.
=46	=46	=46
*	*^	*
8FF'\L)	4r	8r	.
8G-\ (8e-\	.	8g-\ 8ee-\L	>
8F\ 8A\	4r	8f\ 8a\	.
8En\ 8B-\	.	8en\ 8b-\	.
8E-\ 8c\	4cc/	8e-\	.
8G-\J	.	8g-\J	.
*	*v	*v	*
=47	=47	=47
8BB-\L)	4d/ 4f/ 4b-/ &(4dd/&)	.
(8En\	.	.
8F\	4r	.
8B-\	.	.
8A\	4r	.
8Gn\J	.	.
=48	=48	=48
*	*^	*
8FF\L)	4r	8r	.
8G-\ (8e-\	.	8g-\ 8ee-\L	>
8F\ 8A\	4r	8f\ 8a\	.
8En\ 8B-\	.	8en\ 8b-\	.
8E-\ 8c\	4cc/	8e-\	.
8G-\J	.	8g-\J	.
*	*v	*v	*
=49	=49	=49
8BBB-/L)	4d/ 4f/ 4b-/ &(4dd/&)	<
(8EEn/	.	.
8FF/	4r	.
8BB-/	.	.
8AA/	4r	.
8GGn/J)	.	.
=50	=50	=50
*	*^	*
2GGG/	4.d^\	2.G/ 2.B-/ (2.g/	.
.	8c\L	.	.
4AAA/	8e-\	.	.
.	8d\J	.	.
=51	=51	=51	=51
8BBB-/L	2.d\	2.F/ 2.B-/ 2.f/)	.
8EEn/	.	.	.
8FF/	.	.	.
8BB-/	.	.	.
8AA/	.	.	.
8GG/J	.	.	.
=52	=52	=52	=52
2GGG/	4.d^\	2.G/ 2.B-/ (2.g/	.
.	8c\L	.	.
&(4AAA/&)	8e-\	.	.
.	8d\J	.	.
=53	=53	=53	=53
8BBB-/L	2.d\	2.F/ 2.B-/ 2.f/	.
8EEn/	.	.	.
8FF/	.	.	.
8BB-/	.	.	.
8AA/	.	.	.
8GG/J	.	.	.
*	*v	*v	*
!! tie problem in right hand here...
=54	=54	=54
8BBB-/L	[2.F/ [2.B-/ [2.d/ [2.f/	.
8EEn/	.	.
8FF/	.	.
8BB-/	.	.
8AA/	.	.
8GG/J	.	.
=55	=55	=55
8BBB-/L	2.F/] 2.B-/] 2.d/] 2.f/])	<
8EEn/	.	.
8FF/	.	.
8C/	.	.
8AA/	.	.
8BB-/J	.	.
=56	=56	=56
8E-\L	2.r	.
8C#\	.	.
8D\	.	.
8G\	.	.
8En\	.	.
8F\J	.	.
=57	=57	=57
&(4d^\&)	2.r	.
4r	.	.
4r	.	.
=58	=58	=58
*	*^	*
2.FFF/ 2.FF/	2.F/ 2.e-/ [2.f/	2.c^\	f
=59	=59	=59	=59
2.BBB-/ 2.BB-/	2.F/ 2.d/ 2.f/]	2.B-^\	.
*	*v	*v	*
==	==	==
*-	*-	*-
